build/img/icons/icon-house.svg

<svg width="75" height="73" fill="none" xmlns="http://www.w3.org/2000/svg"><path d="M29.5 65.3h16V41.4h-16v23.9zm13.1-2.9H32.4V44.3h10.1v18.1h.1z" fill="#81B3D2"/><path d="M72.6 39.4l2.1-2.1-9.9-9.9V.4H51v13.2L37.3 0 0 37.4l2.1 2.1 7.8-7.8v37.8H6v2.9h63.9v-2.9h-5.1V31.6l7.8 7.8zm-18.7-36h7.9v21.1l-7.9-7.9V3.4zm8 66h-49V28.7L37.3 4.2l24.5 24.5v40.7h.1z" fill="#81B3D2"/><path d="M29.8 27.2c0 4.3 3.5 7.8 7.7 7.8 4.3 0 7.8-3.5 7.8-7.8s-3.5-7.7-7.8-7.7-7.7 3.4-7.7 7.7zm7.7-5c2.7 0 5 2.2 5 5 0 2.7-2.2 5-5 5-2.7 0-5-2.2-5-5 0-2.7 2.3-5 5-5zM20 41h-3v3.9h3V41zm5.8.4h-3v3.9h3v-3.9zm-5.9 6h-3v3.9h3v-3.9zm5.9 0h-3v3.9h3v-3.9zm26-6h-3v3.9h3v-3.9zm6 0h-3v3.9h3v-3.9zm-6 6h-3v3.9h3v-3.9zm6 0h-3v3.9h3v-3.9z" fill="#81B3D2"/></svg>

<svg width="75" height="73" viewBox="0 0 75 73" fill="none" xmlns="http://www.w3.org/2000/svg">
<path d="M29.5 65.3H45.5V41.4H29.5V65.3ZM42.6 62.4H32.4V44.3H42.5V62.4H42.6Z" fill="#81B3D2"/>
<path d="M72.6 39.4L74.7 37.3L64.8 27.4V0.4H51V13.6L37.3 0L0 37.4L2.1 39.5L9.9 31.7V69.5H6V72.4H69.9V69.5H64.8V31.6L72.6 39.4ZM53.9 3.4H61.8V24.5L53.9 16.6V3.4ZM61.9 69.4H12.9V28.7L37.3 4.2L61.8 28.7V69.4H61.9Z" fill="#81B3D2"/>
<path d="M29.8 27.2C29.8 31.5 33.3 35 37.5 35C41.8 35 45.3 31.5 45.3 27.2C45.3 22.9 41.8 19.5 37.5 19.5C33.2 19.5 29.8 22.9 29.8 27.2ZM37.5 22.2C40.2 22.2 42.5 24.4 42.5 27.2C42.5 29.9 40.3 32.2 37.5 32.2C34.8 32.2 32.5 30 32.5 27.2C32.5 24.5 34.8 22.2 37.5 22.2Z" fill="#81B3D2"/>
<path d="M20 41H17V44.9H20V41Z" fill="#81B3D2"/>
<path d="M25.8 41.4H22.8V45.3H25.8V41.4Z" fill="#81B3D2"/>
<path d="M19.9 47.4H16.9V51.3H19.9V47.4Z" fill="#81B3D2"/>
<path d="M25.8 47.4H22.8V51.3H25.8V47.4Z" fill="#81B3D2"/>
<path d="M51.8 41.4H48.8V45.3H51.8V41.4Z" fill="#81B3D2"/>
<path d="M57.8 41.4H54.8V45.3H57.8V41.4Z" fill="#81B3D2"/>
<path d="M51.8 47.4H48.8V51.3H51.8V47.4Z" fill="#81B3D2"/>
<path d="M57.8 47.4H54.8V51.3H57.8V47.4Z" fill="#81B3D2"/>
</svg>
